icons/page_break.svg

<?xml version="1.0" encoding="UTF-8" standalone="no"?>
<svg width="24px" height="24px" viewBox="0 0 24 24" version="1.1" xmlns="http://www.w3.org/2000/svg" xmlns:xlink="http://www.w3.org/1999/xlink" xmlns:sketch="http://www.bohemiancoding.com/sketch/ns">
    <!-- Generator: Sketch 3.4.1 (15681) - http://www.bohemiancoding.com/sketch -->
    <title>page_break</title>
    <desc>Created with Sketch.</desc>
    <defs></defs>
    <g id="Page-1" stroke="none" stroke-width="1" fill="none" fill-rule="evenodd" sketch:type="MSPage">
        <g id="page_break" sketch:type="MSArtboardGroup" fill="#474747">
            <path d="M4,12 L4,0.5 L3.5,1 L14.5,1 L14.1464466,0.853553391 L20.1464466,6.85355339 L20,6.5 L20,12 L20.6755617,11.5318354 L16.6755617,10.0318354 C16.491974,9.96299003 16.2850903,10.007803 16.1464466,10.1464466 L13.1464466,13.1464466 L13.8123475,13.1095656 L8.81234752,9.1095656 C8.56377972,8.91071136 8.19514438,8.99167726 8.0527864,9.2763932 L6.0527864,13.2763932 L6.7236068,13.0527864 L3.7236068,11.5527864 L4,12 L4,12 Z M3,12 C3,12.189386 3.10700119,12.3625176 3.2763932,12.4472136 L6.2763932,13.9472136 C6.52338245,14.0707082 6.82371897,13.970596 6.9472136,13.7236068 L8.9472136,9.7236068 L8.18765248,9.8904344 L13.1876525,13.8904344 C13.386598,14.0495908 13.6734005,14.0337062 13.8535534,13.8535534 L16.8535534,10.8535534 L16.3244383,10.9681646 L20.3244383,12.4681646 C20.6513137,12.5907429 21,12.3491031 21,12 L21,6.5 C21,6.36739176 20.9473216,6.2402148 20.8535534,6.14644661 L14.8535534,0.146446609 C14.7597852,0.0526784202 14.6326082,0 14.5,0 L3.5,0 C3.22385763,0 3,0.223857625 3,0.5 L3,12 L3,12 Z" id="Shape" sketch:type="MSShapeGroup"></path>
            <path d="M20,15.5 L20,23.5 L20.5,23 L3.5,23 L4,23.5 L4,15.5 L3.25193053,15.9341216 L6.75193053,17.9341216 C7.00115319,18.0765345 7.3188443,17.9803454 7.4472136,17.7236068 L9.4472136,13.7236068 L8.68101618,13.8850316 L13.2787945,17.6941136 C13.4756014,17.8571606 13.7636871,17.8455441 13.9467273,17.6671806 L17.2958484,14.4036308 L16.7574796,14.5082634 L20.3105802,15.9627312 L20,15.5 L20,15.5 Z M21,15.5 C21,15.2970121 20.8772775,15.1141687 20.6894198,15.0372688 L17.1363192,13.5828011 C16.9520379,13.5073652 16.7405621,13.5484658 16.5979504,13.6874337 L13.2488293,16.9509835 L13.9167621,16.9240504 L9.31898382,13.1149684 C9.07115271,12.9096499 8.69671413,12.9885377 8.5527864,13.2763932 L6.5527864,17.2763932 L7.24806947,17.0658784 L3.74806947,15.0658784 C3.41474109,14.8754051 3,15.1160887 3,15.5 L3,23.5 C3,23.7761424 3.22385763,24 3.5,24 L20.5,24 C20.7761424,24 21,23.7761424 21,23.5 L21,15.5 L21,15.5 Z" id="Shape" sketch:type="MSShapeGroup"></path>
            <path d="M14,0.5 L14,6.5 C14,6.77614237 14.2238576,7 14.5,7 L20.5,7 C20.7761424,7 21,6.77614237 21,6.5 C21,6.22385763 20.7761424,6 20.5,6 L14.5,6 L15,6.5 L15,0.5 C15,0.223857625 14.7761424,0 14.5,0 C14.2238576,0 14,0.223857625 14,0.5 L14,0.5 Z" id="Shape" sketch:type="MSShapeGroup"></path>
        </g>
    </g>
</svg>

<svg width="24" height="24" xmlns="http://www.w3.org/2000/svg"><title>page_break</title><g fill="#474747" fill-rule="evenodd"><path d="M4 12V.5l-.5.5h11l-.354-.146 6 6L20 6.5V12l.676-.468-4-1.5a.5.5 0 0 0-.53.114l-3 3 .666-.036-5-4a.5.5 0 0 0-.76.166l-2 4 .672-.223-3-1.5L4 12zm-1 0a.5.5 0 0 0 .276.447l3 1.5a.5.5 0 0 0 .67-.223l2-4-.758.166 5 4a.5.5 0 0 0 .666-.036l3-3-.53.114 4 1.5A.5.5 0 0 0 21 12V6.5a.5.5 0 0 0-.146-.354l-6-6A.5.5 0 0 0 14.5 0h-11a.5.5 0 0 0-.5.5V12z"/><path d="M20 15.5v8l.5-.5h-17l.5.5v-8l-.748.434 3.5 2a.5.5 0 0 0 .695-.21l2-4-.766.16 4.6 3.81a.5.5 0 0 0 .67-.027l3.35-3.263-.54.104 3.56 1.455L20 15.5zm1 0a.5.5 0 0 0-.31-.463l-3.554-1.454a.5.5 0 0 0-.538.104l-3.35 3.264.67-.02-4.6-3.81a.5.5 0 0 0-.765.16l-2 4 .695-.21-3.5-2A.5.5 0 0 0 3 15.5v8a.5.5 0 0 0 .5.5h17a.5.5 0 0 0 .5-.5v-8zm-7-15v6a.5.5 0 0 0 .5.5h6a.5.5 0 1 0 0-1h-6l.5.5v-6a.5.5 0 1 0-1 0z"/></g></svg>
